X:49
T:McCallum's  
B:BSMI3 % as "MacCallum's"
F:file ID bsmi.3/49mccall
Z:bill@capeirish.com
R:jig
M:6/8
Q:150
L:1/8
K:Dm
ADD DEG|Add c2e|dcA AGE|c2A GED|
ADD D/E/FG|Add c2e|dcA AGE|GED D3 :|
Add dcd|cde e2d|cAA AGE|c2e dcA ||
[1 Add dcd|cde e2d|cAA AGE|GED D2G :|
[2 Add dcd|cde a2g|edc AGE|GED D3 |]

